X: 29824
T: O'Connor's
R: polka
M: 2/4
K: Gmajor
|:D>E GB|D>E GB|AE ED/E/|GE EG|
D>E GB|D>E GB|AE FG|AG G2:|
|:dB BA/B/|dB B>A|GE ED/E/|GE E2|
dB BA/B/|dB B>A|AE FG|AG G2:|

